X: 16167
T: Green Mountain Boys, The
R: jig
M: 6/8
K: Cdorian
BGF DEC|B,DFB2F|Ggf dec|BdB cAF|
BGF DEC|B,DFB2F|Ggf dec|1 dBBB2F:|2 dBB Bcd||
|:fdB FBd|ecAF2e|dBF DFB|cAF Fde|
[1 fdB FBd|ecAF2e|dcB FBA|B3Bde:|
[2 BGF DEC|B,DFB2F|Ggf dec|dBBB2||

